X: 1370
T: An Ribhinn Donn
R: waltz
M: 3/4
K: Edorian
B,EF|G2 F4|B A4 F|E6-|E3 dcB|
e4 B2|d c3 BA|A6-|A3 ABd|
e2 B4|d c3 BA|B6-|B3 B,EF|
G2 F4|B A4 F|E6-|E3||

